X:249
T: MAEGDLEIN FREI DU NICHT SO FRUEH
N: E0835
O: Europa, Mitteleuropa, Deutschland, Westfalen
R: Hochzeits -, Ehestands - Lied
M: 4/4
L: 1/8
K: D
DF | A3FG2G2 | F4z2
FG | A3BB2G2 | F4z2
DE | F2F2F2EF | G2E2E2
D2 | F2F2A2GF | G2E2E2z
A, | DEFGA2AA | B2B2A2z
A | G2G2F2F2 | E2E2D2

@@@ Tune index: 4562
